X:12
T:Stoneleigh House
C:Andy Hornby  2004
Q:1/4=160
I:abc2nwc
M:3/4
L:1/8
K:G
D|GF GA Bc|d2cB AG|c2Bc d2|A4-A D|
GF GA Bc|d2BG c2|B3c A2|G4-G:|
|:d|ed cd ef|g2GA B2|c2E3A|G2FE D2|
GF GA Bc|d2BG c2|B3c A2|G4-G:|
%%vskip 2.5cm
